Costumes/6-glow.svg

<?xml version="1.0" encoding="UTF-8" standalone="no"?>
<svg
   version="1.1"
   width="60.217724"
   height="75.919998"
   id="svg8"
   sodipodi:docname="6-glow.svg"
   xmlns:inkscape="http://www.inkscape.org/namespaces/inkscape"
   xmlns:sodipodi="http://sodipodi.sourceforge.net/DTD/sodipodi-0.dtd"
   xmlns="http://www.w3.org/2000/svg"
   xmlns:svg="http://www.w3.org/2000/svg">
  <defs
     id="defs12" />
  <sodipodi:namedview
     id="namedview10"
     pagecolor="#ffffff"
     bordercolor="#000000"
     borderopacity="0.25"
     inkscape:showpageshadow="2"
     inkscape:pageopacity="0.0"
     inkscape:pagecheckerboard="0"
     inkscape:deskcolor="#d1d1d1" />
  <!-- Exported by Scratch - http://scratch.mit.edu/ -->
  <g
     id="ID0.39281158335506916">
    <g
       id="ID0.24074362497776747">
      <g
         id="ID0.8261958677321672">
        <path
           id="ID0.2935148295946419"
           fill="#00cccc"
           d="m 57.36,61.07 c -1.64,4.61 -5.25,8.32 -11.05,11.38 -0.05,0.02 -0.1,0.05 -0.14,0.07 -4.43,2.26 -9.07,3.4 -13.79,3.4 -6.53,0 -12.76,-2.2 -18.5,-6.53 C 13.84,69.36 13.8,69.33 13.76,69.3 12.4,68.24 11.14,66.91 7.68,62.19 7.36,61.77 7.08,61.32 6.83,60.85 L 5.86,59.01 C 5.19,58.13 4.56,57.11 3.92,55.91 3.58,55.27 3.31,54.61 3.11,53.92 2.51,51.94 1.77,49.1 0.84,45.25 0.79,45.05 0.75,44.84 0.71,44.64 0.23,42.03 0,39.02 0,35.45 0,30.55 0.07,29.57 0.2,28.62 0.24,28.39 0.28,28.15 0.33,27.92 0.62,26.53 1.2,24.48 3.49,19 3.76,18.34 4.1,17.71 4.5,17.11 4.79,16.68 5.19,16.07 5.7,15.28 8.26,10.73 12.06,6.99 16.98,4.18 21.24,1.78 25.66,0.4 30.18,0.04 30.47,0.01 30.77,0 31.06,0 c 0.62,0 1.13,0.02 5.17,0.4 0.38,0.04 0.75,0.09 1.12,0.17 0.46,0.09 1.05,0.23 4.44,1.09 0.04,0.01 0.08,0.02 0.12,0.03 3.01,0.81 5.71,2.55 8.01,5.18 3.32,3.77 4.01,7.53 4.01,10.02 0,3.02 -1.04,5.95 -2.94,8.29 2.53,2.4 4.56,5.1 6.03,8.04 0.44,0.77 0.94,1.74 1.56,3.04 0.23,0.49 0.43,1 0.59,1.52 0.52,1.71 0.81,3.62 0.91,6.01 v 0.13 c 0.04,1.3 0.07,2.24 0.08,2.82 0.3,3.58 -0.56,7.93 -2.8,14.33 z" />
      </g>
    </g>
    <g
       id="ID0.8149917270056903">
      <path
         id="ID0.1787513718008995"
         fill="#ffffff"
         d="m 49.178,47.417 c 0.234,1.818 -0.498,5.16 -2.198,10.027 -0.646,1.818 -2.581,3.576 -5.806,5.277 -2.874,1.465 -5.806,2.199 -8.796,2.199 -4.105,0 -8.064,-1.438 -11.875,-4.311 -0.528,-0.41 -1.848,-2.051 -3.958,-4.926 l -1.496,-2.814 c -0.41,-0.41 -0.879,-1.113 -1.407,-2.111 -0.527,-1.759 -1.231,-4.455 -2.11,-8.092 -0.353,-1.936 -0.528,-4.34 -0.528,-7.213 0,-3.107 0.029,-4.867 0.088,-5.277 0.233,-1.113 1.085,-3.432 2.551,-6.949 0.353,-0.527 0.85,-1.289 1.495,-2.287 1.584,-2.932 4.017,-5.336 7.301,-7.213 2.815,-1.584 5.688,-2.492 8.62,-2.727 0.293,0 1.672,0.118 4.135,0.352 0.293,0.059 1.583,0.383 3.87,0.968 0.88,0.235 1.744,0.835 2.595,1.804 0.85,0.967 1.275,1.891 1.275,2.77 0,0.528 -0.176,0.998 -0.527,1.408 -0.527,0.586 -1.291,0.91 -2.287,0.967 -0.938,0.119 -1.672,0 -2.199,-0.352 -0.294,-0.645 -1.086,-1.465 -2.375,-2.463 -1.467,-0.586 -2.902,-0.879 -4.31,-0.879 -4.165,0 -7.8,2.346 -10.907,7.037 -2.757,4.221 -3.93,8.092 -3.519,11.609 3.928,-3.811 8.884,-5.717 14.865,-5.717 0.938,0 1.905,0.059 2.902,0.176 0.058,0 0.234,0.088 0.528,0.264 2.228,0 4.603,1.057 7.125,3.167 2.287,1.878 3.987,3.988 5.102,6.333 0.293,0.471 0.732,1.319 1.319,2.551 0.233,0.764 0.381,1.848 0.439,3.255 0.057,1.935 0.088,2.991 0.088,3.167 z m -5.366,0.047 c 0.176,-3.882 -0.675,-6.971 -2.551,-9.266 -2.815,-3.588 -6.363,-5.383 -10.644,-5.383 -3.988,0 -8.151,2.501 -12.49,7.501 -0.235,0.118 -0.558,0.294 -0.968,0.529 1.231,6.767 3.107,11.59 5.63,14.472 2.814,3.178 5.951,4.678 9.411,4.502 1.349,0.176 2.888,-0.016 4.618,-0.574 1.729,-0.557 3.005,-1.338 3.827,-2.338 1.936,-2.295 2.992,-5.441 3.167,-9.443 z" />
    </g>
  </g>
</svg>

<svg version="1.1" width="61" height="76" xmlns="http://www.w3.org/2000/svg" xmlns:xlink="http://www.w3.org/1999/xlink">
  <!-- Exported by Scratch - http://scratch.mit.edu/ -->
  <g id="ID0.39281158335506916">
    <g id="ID0.24074362497776747">
      <g id="ID0.8261958677321672">
        <path id="ID0.2935148295946419" fill="#00CCCC" d="M 57.360 61.070 C 55.720 65.680 52.110 69.390 46.310 72.450 C 46.260 72.470 46.210 72.500 46.170 72.520 C 41.740 74.780 37.100 75.920 32.380 75.920 C 25.850 75.920 19.620 73.720 13.880 69.390 C 13.840 69.360 13.800 69.330 13.760 69.300 C 12.400 68.240 11.140 66.910 7.680 62.190 C 7.360 61.770 7.080 61.320 6.830 60.850 L 5.860 59.010 C 5.190 58.130 4.560 57.110 3.920 55.910 C 3.580 55.270 3.310 54.610 3.110 53.920 C 2.510 51.940 1.770 49.100 0.840 45.250 C 0.790 45.050 0.750 44.840 0.710 44.640 C 0.230 42.030 0 39.020 0 35.450 C 0 30.550 0.070 29.570 0.200 28.620 C 0.240 28.390 0.280 28.150 0.330 27.920 C 0.620 26.530 1.200 24.480 3.490 19 C 3.760 18.340 4.100 17.710 4.500 17.110 C 4.790 16.680 5.190 16.070 5.700 15.280 C 8.260 10.730 12.060 6.990 16.980 4.180 C 21.240 1.780 25.660 0.400 30.180 0.040 C 30.470 0.010 30.770 0 31.060 0 C 31.680 0 32.190 0.020 36.230 0.400 C 36.610 0.440 36.980 0.490 37.350 0.570 C 37.810 0.660 38.400 0.800 41.790 1.660 C 41.830 1.670 41.870 1.680 41.910 1.690 C 44.920 2.500 47.620 4.240 49.920 6.870 C 53.240 10.640 53.930 14.400 53.930 16.890 C 53.930 19.910 52.890 22.840 50.990 25.180 C 53.520 27.580 55.550 30.280 57.020 33.220 C 57.460 33.990 57.960 34.960 58.580 36.260 C 58.810 36.750 59.010 37.260 59.170 37.780 C 59.690 39.490 59.980 41.400 60.080 43.790 L 60.080 43.920 C 60.120 45.220 60.150 46.160 60.160 46.740 C 60.460 50.320 59.600 54.670 57.360 61.070 Z "/>
      </g>
    </g>
    <g id="ID0.8149917270056903">
      <path id="ID0.1787513718008995" fill="#FFFFFF" d="M 49.178 47.417 C 49.412 49.235 48.680 52.577 46.980 57.444 C 46.334 59.262 44.399 61.020 41.174 62.721 C 38.300 64.186 35.368 64.920 32.378 64.920 C 28.273 64.920 24.314 63.482 20.503 60.609 C 19.975 60.199 18.655 58.558 16.545 55.683 L 15.049 52.869 C 14.639 52.459 14.170 51.756 13.642 50.758 C 13.115 48.999 12.411 46.303 11.532 42.666 C 11.179 40.730 11.004 38.326 11.004 35.453 C 11.004 32.346 11.033 30.586 11.092 30.176 C 11.325 29.063 12.177 26.744 13.643 23.227 C 13.996 22.700 14.493 21.938 15.138 20.940 C 16.722 18.008 19.155 15.604 22.439 13.727 C 25.254 12.143 28.127 11.235 31.059 11 C 31.352 11 32.731 11.118 35.194 11.352 C 35.487 11.411 36.777 11.735 39.064 12.320 C 39.944 12.555 40.808 13.155 41.659 14.124 C 42.509 15.091 42.934 16.015 42.934 16.894 C 42.934 17.422 42.758 17.892 42.407 18.302 C 41.880 18.888 41.116 19.212 40.120 19.269 C 39.182 19.388 38.448 19.269 37.921 18.917 C 37.627 18.272 36.835 17.452 35.546 16.454 C 34.079 15.868 32.644 15.575 31.236 15.575 C 27.071 15.575 23.436 17.921 20.329 22.612 C 17.572 26.833 16.399 30.704 16.810 34.221 C 20.738 30.410 25.694 28.504 31.675 28.504 C 32.613 28.504 33.580 28.563 34.577 28.680 C 34.635 28.680 34.811 28.768 35.105 28.944 C 37.333 28.944 39.708 30.001 42.230 32.111 C 44.517 33.989 46.217 36.099 47.332 38.444 C 47.625 38.915 48.064 39.763 48.651 40.995 C 48.884 41.759 49.032 42.843 49.090 44.250 C 49.147 46.185 49.178 47.241 49.178 47.417 Z M 43.812 47.464 C 43.988 43.582 43.137 40.493 41.261 38.198 C 38.446 34.610 34.898 32.815 30.617 32.815 C 26.629 32.815 22.466 35.316 18.127 40.316 C 17.892 40.434 17.569 40.610 17.159 40.845 C 18.390 47.612 20.266 52.435 22.789 55.317 C 25.603 58.495 28.740 59.995 32.200 59.819 C 33.549 59.995 35.088 59.803 36.818 59.245 C 38.547 58.688 39.823 57.907 40.645 56.907 C 42.581 54.612 43.637 51.466 43.812 47.464 Z "/>
    </g>
  </g>
</svg>
